X: 1670
T: Sanma Uşşâk`ın Hemân
C: Ahmet Avni Konuk
O: Turkey
F: http://compmusic.upf.edu/node/140
N: ussak--kupe--agirduyek--sanma--ahmet_avni_konuk
N: makam= ussak
N: form= kupe
N: usul= agirduyek = 8/4
M: 8/4
L: 1/16
K: C _2/4B   
Q: 1/4=57
%%MIDI tuningsystem comma53
z4 G2G2 G4 A4 A8 B3A B2c2  | B3A G2e2 d4 c3B B3A AcBA A6z2  | 
w:  San *  *  ma  Uş şâ  |  *  *  kın  *  *  he *  mân  *  *  *  *  *  bu   | 
z4 B2c2 B4 c4 d4 {e}d2e2 d2c2 B2A2  | \
w:  ben *  *  de  i  *  *  *  â  | 
G4 g2g2 g4 f2e2 e3d dfed d6z2  | 
w:  *  zâ *  *  de *  dir    | 
z4 c2d2 c4 d4 e2fg e2d2 d2c4BA  | \
w:  Â *  *  rız_ ı  *  *  *  *  gül  | 
B4 c2d2 c4 B4 dcde d2c2 B3A G4  | 
w:  *  gû *  *  nu na  *  *  *  zül  | 
z4 A2B2 A4 B4 c4 B2A2 d4 d2e2  | d2c2 c4 c2B2 B2A2 A2c4BA A6z2  | 
w:  fün  *  *  da hî  *  *  dil  |  *  *  dâ *  *  de *  *  dir    | 
|


